icon-themes/breeze_svg/cmd/sc_scrollbar.svg

<svg viewBox="0 0 16 16" xmlns="http://www.w3.org/2000/svg"><path d="m3 2v4.5 1.5 1.5 4.5h10v-4.5-1.5-1.5-4.5zm5 .5.375.4375 3.28125 3.5625h-1.375l-2.28125-2.5-2.3125 2.5h-1.34375l3.28125-3.5625zm-3.65625 7h1.34375l2.3125 2.5 2.28125-2.5h1.375l-3.28125 3.5625-.375.4375-.375-.4375z" fill="#4d4d4d"/><path d="m4 7.5v1h8v-1z" fill="#1d99f3"/></svg>

<svg xmlns="http://www.w3.org/2000/svg" viewBox="0 0 16 16">
 <path 
     style="fill:#4d4d4d" 
     d="M 3 2 L 3 6.5 L 3 8 L 3 9.5 L 3 14 L 13 14 L 13 9.5 L 13 8 L 13 6.5 L 13 2 L 3 2 z M 8 2.5 L 8.375 2.9375 L 11.65625 6.5 L 10.28125 6.5 L 8 4 L 5.6875 6.5 L 4.34375 6.5 L 7.625 2.9375 L 8 2.5 z M 4.34375 9.5 L 5.6875 9.5 L 8 12 L 10.28125 9.5 L 11.65625 9.5 L 8.375 13.0625 L 8 13.5 L 7.625 13.0625 L 4.34375 9.5 z "
     />
 <path 
     style="fill:#1d99f3" 
     d="M 4 7.5 L 4 8.5 L 12 8.5 L 12 7.5 L 4 7.5 z "
     />
 </svg>
